X:1
T:Title
%%score { 1 | 2 }
L:1/8
M:2/4
K:Db
V:1 treble nm="Grand Piano"
V:2 bass 
V:1
 z2 z[Q:1/4=78] [FA] | [FA][Fd] [Fd]>[Fe] | [Gd][Gc] [Gc]>[CGA] | [CGB]>[CGA] [CGB]>[CGA] | %4
[M:7/16] [DFA]/-[DFA]/-[DFA]/-[DFA]-<[DFA] |[M:1/16] [A,FA]/ |[M:2/4] [A,EG][A,EA] [A,EG][A,EA] | %7
 FA F>d | d>B cd |[M:7/16] e/-e/-e/-e-<e |[M:1/16] A/ |[M:2/4] [FAf]>[Ge] [Fd][FA] | %12
 [Ac][GB] [FA][DF] | [CA]>[CE] [CA]>[CE] |[M:7/16] F/-F/-F/-F-<F |[M:1/16] F/ |[M:2/4] FF G>G | %17
 AA B>B | [=GB][GB] [Gc][Gd] |[M:7/16] [Ae]/-[Ae]/-[Ae]/-[Ae]-<[Ae] |[M:1/16] [GA]/ | %21
[M:2/4] [FAf]>[Ge] [Fd][FA] | [Ac]B AG | F>D [CE]>D |[M:3/8] D3 |] %25
V:2
 z2 z [D,D] | [D,D][D,A,] [D,A,]>[D,A,] | [D,A,][E,A,] [A,,A,]>A,, | A,,>A,, =A,,>A,, | %4
[M:7/16] D,/-D,/-D,/-D,-<D, |[M:1/16] D,/ |[M:2/4] A,,C, A,,C, | [D,A,D][F,A,D] [D,A,D]>[F,A,D] | %8
 [E,=G,E]>[E,G,E] [E,A,E][E,B,E] |[M:7/16][K:treble] [A,CE]/-[A,CE]/-[A,CE]/-[A,CE]-<[A,CE] | %10
[M:1/16] [A,CG]/ |[M:2/4][K:bass] [D,D]>[D,A,] [D,A,][D,D] | [G,D][G,D] [D,D][D,A,] | %13
 [A,,A,]>[A,,A,] [A,,A,]>[A,,A,] |[M:7/16] [D,A,D]/-[D,A,D]/-[D,A,D]/-[D,A,D]-<[D,A,D] | %15
[M:1/16] [D,A,D]/ |[M:2/4] [D,A,D][D,A,D] [E,A,C]>[E,A,C] | [F,A,D][F,A,D] [G,DG]>[G,DG] | %18
 [E,D][E,D] [E,D][E,D] |[M:7/16] [A,C]/-[A,C]/-[A,C]/-[A,C]-<[A,C] |[M:1/16] [A,C]/ | %21
[M:2/4] [D,D]>[D,A,] [D,A,][D,D] | [G,D][G,DG] [F,D][G,B,E] | [A,D]>[B,,F,] [A,,G,]>[D,F,] | %24
[M:3/8] [D,F,]3 |] %25

